X: 10971
Q: "Very slow and expressive.
M: 3/4
L: 1/16
K: G
{A}B6 A2 B2AG | {B}A4 G4 G3A | {GA}B6 A2 B2AG | G8 G3A |\
{A}B6 A2 B2AG | A4 G4 G3A | {A}B4 d2B2A3G | G8 :|
|: d4 |\
e3d d4 B3d | {d}e3d d4 B3d | g3e e4 d3B | A3B {B}e8 |\
g3e e4 d4 | {e}d3B A4 G2E2 | G3A B4 d2B2 | A3G G4 :|


